!!!OTL: Masangshu
!!!ARE: Asia, China,ÿHubei, Badong
!! I, 458
!!!SCT: C1459
!!!YEM: Copyright 1995, estate of Helmut Schaffrath.
**kern
*ICvox
*Ivox
!! Mixed meters:  2/4; 3/4
*M2/4
*k[f#]
*G:
{8g
8g
8g
8e
=1
8dd
8ee
8dd
8b
=2
8b
16b
16a
8g
8a
=3
16b
16dd
4.a}
=4
{8dd
8dd
8a
8b
=5
4dd
4b
=6
8a
8a
8b
16a
16b
=7
4.dd
8b}
=8
*M3/4
{8e
8dd
8b
8a
8e
8g
=9
*M2/4
8a
8a
16b
16dd
16b
16a
=10
2g}
==
!!!AGN: Xiaodiao, Qingge
!!!ONB: ESAC (Essen Associative Code) Database: HUANG
!!!AMT: irregular
!!!AIN: vox
!!!EED: Helmut Schaffrath
!!!EEV: 1.0
*-
